X:814
T:Rise Ye Lazy Fellow
R:Reel
B:The Athole Collection
M:C|
L:1/8
K:A Minor
c|A2AB G3A|cdec A2A,2|A2Ac G2 G>B|cdec A3:|
g|aegd edca|gedc A3g|aegd edce|dega A3g|aegd edca|gedc A3g|
aegd edce|dega A3||

